X: 720
T: Aherne's Egg
R: jig
M: 6/8
K: Amixolydian
F2D D=CA,|=CDE D2A|dcd fde|dcA GFG|
AdA =c2A|BGA FDE|=F=CA, F/G/AF|1 GEA DAG:|2 GEA D2A||
daf gfg|e=ce age|daf gfg|=cde d3|
fga efg|cde E^GB|Ace dcA|1 GEA D2A:|2 GEA DAG||

